X:10702
T:Miss McLeod's
R:Reel
B:Tuneworks Tunebook (https://www.tuneworks.co.uk/)
G:Tuneworks
Z:Jon Warbrick <jon.warbrick@googlemail.com>
M:4/4
L:1/8
K:G
|: "G"G2 g2 edeg | B2 BA BcBA | "G"G2 g2 edeg | "D"A2 AG AcBA | 
"G"G2 g2 edeg | BcBA B2 d2 | "C"edcd edef | gedB "D"AcBA :|
"G"GABc dBGA | B2 BA BcBA | "G"GABc dBGB | "D"A2 AG AcBA | 
"G"GABc dBGA | B2 BA B2 d2 | "C"edcd edef | gedB "D"AcBA :| 